svg/fluentui-system-icons/ic_fluent_key_command_16_regular.svg

<svg width="16" height="16" viewBox="0 0 16 16" fill="none" xmlns="http://www.w3.org/2000/svg">
<path d="M6 4V5H10V4C10 2.89543 10.8954 2 12 2C13.1046 2 14 2.89543 14 4C14 5.10457 13.1046 6 12 6H11V10H12C13.1046 10 14 10.8954 14 12C14 13.1046 13.1046 14 12 14C10.8954 14 10 13.1046 10 12V11H6V12C6 13.1046 5.10457 14 4 14C2.89543 14 2 13.1046 2 12C2 10.8954 2.89543 10 4 10H5V6H4C2.89543 6 2 5.10457 2 4C2 2.89543 2.89543 2 4 2C5.10457 2 6 2.89543 6 4ZM5 5V4C5 3.44772 4.55228 3 4 3C3.44772 3 3 3.44772 3 4C3 4.55228 3.44772 5 4 5H5ZM10 10V6H6V10H10ZM11 11V12C11 12.5523 11.4477 13 12 13C12.5523 13 13 12.5523 13 12C13 11.4477 12.5523 11 12 11H11ZM12 5C12.5523 5 13 4.55228 13 4C13 3.44772 12.5523 3 12 3C11.4477 3 11 3.44772 11 4V5H12ZM5 11H4C3.44772 11 3 11.4477 3 12C3 12.5523 3.44772 13 4 13C4.55228 13 5 12.5523 5 12V11Z" fill="#212121"/>
</svg>

<svg xmlns="http://www.w3.org/2000/svg" width="16" height="16"><path d="M6 4v1h4V4a2 2 0 1 1 2 2h-1v4h1a2 2 0 1 1-2 2v-1H6v1a2 2 0 1 1-2-2h1V6H4a2 2 0 1 1 2-2ZM5 5V4a1 1 0 1 0-1 1h1Zm5 5V6H6v4h4Zm1 1v1a1 1 0 1 0 1-1h-1Zm1-6a1 1 0 1 0-1-1v1h1Zm-7 6H4a1 1 0 1 0 1 1v-1Z"/></svg>
